X:2141
T:Yn oabbyr vwyllin
T:The mill hopper
C:James Connor, Stone cutter 
C:Traditional
O:Isle of Man
Z:Clague collection
N:Notes from middle of bar 4 to middle of bar 6 had a box around them in the MS. Also signs of re-barring in MS.
B:Kiaull Vannin #141 
M:6/8 
L:1/8
Q:160 
K:G 
B/c/|d2d edc|(B3G)A/B/|c2A G2F|(G3 G)2A/B/|c2A G2F|G3-G2G|G3 G3| 
e2e d2d|e2c B2c|d3-d2d|d2g g2g|g2d ddd|e2c B2c|(d3 G)A/B/| 
c2B c2d|efg dBd|d3 G3|G3-GA/B/|c2B c2d|efg dBd|d3 G3|G3-G2|| 

